packages/astro-components-stencil/src/icons/filter-tilt-shift.svg

<svg width="24" height="24" viewBox="0 0 24 24" fill="none" xmlns="http://www.w3.org/2000/svg">
<path fill-rule="evenodd" clip-rule="evenodd" d="M11 3.22986C11 2.58986 10.41 2.09986 9.78998 2.23986C8.66998 2.49986 7.60998 2.93986 6.66998 3.53986C6.13998 3.87986 6.05998 4.63986 6.50998 5.08986C6.82998 5.40986 7.33998 5.48986 7.71998 5.24986C8.48998 4.75986 9.33998 4.39986 10.26 4.19986C10.7 4.09986 11 3.68986 11 3.22986ZM17.33 3.54986C16.39 2.94986 15.33 2.50986 14.21 2.24986C13.59 2.10986 13 2.58986 13 3.22986C13 3.67986 13.3 4.09986 13.74 4.18986C14.65 4.38986 15.51 4.75986 16.27 5.23986C16.66 5.47986 17.16 5.40986 17.48 5.07986C17.94 4.63986 17.87 3.88986 17.33 3.54986ZM21.76 9.78986C21.9 10.4099 21.41 10.9999 20.77 10.9999C20.31 10.9999 19.9 10.6999 19.8 10.2499C19.6 9.33986 19.24 8.48986 18.75 7.71986C18.51 7.33986 18.59 6.82986 18.91 6.50986C19.36 6.05986 20.12 6.13986 20.46 6.66986C21.06 7.60986 21.5 8.66986 21.76 9.78986ZM5.09998 6.50986C4.63998 6.05986 3.88998 6.12986 3.54998 6.66986C2.94998 7.60986 2.50998 8.66986 2.24998 9.78986C2.10998 10.4099 2.58998 10.9999 3.22998 10.9999C3.67998 10.9999 4.09998 10.6999 4.18998 10.2599C4.38998 9.34986 4.75998 8.48986 5.23998 7.72986C5.49998 7.33986 5.41998 6.82986 5.09998 6.50986ZM2.23998 14.2099C2.09998 13.5899 2.58998 12.9999 3.22998 12.9999C3.68998 12.9999 4.09998 13.2999 4.18998 13.7499C4.38998 14.6699 4.74998 15.5199 5.23998 16.2799C5.48998 16.6599 5.40998 17.1699 5.08998 17.4899C4.63998 17.9399 3.87998 17.8699 3.53998 17.3299C2.93998 16.3799 2.49998 15.3299 2.23998 14.2099ZM15 11.9999C15 10.3399 13.66 8.99986 12 8.99986C10.34 8.99986 8.99998 10.3399 8.99998 11.9999C8.99998 13.6599 10.34 14.9999 12 14.9999C13.66 14.9999 15 13.6599 15 11.9999ZM20.45 17.3399C20.11 17.8699 19.35 17.9399 18.9 17.4899C18.58 17.1699 18.5 16.6599 18.76 16.2899C19.24 15.5199 19.61 14.6699 19.81 13.7599C19.9 13.3199 20.32 13.0199 20.77 13.0199C21.4 13.0199 21.89 13.6099 21.75 14.2299C21.49 15.3399 21.05 16.3999 20.45 17.3399ZM13 20.7699C13 21.4099 13.59 21.8999 14.21 21.7599C15.33 21.4999 16.38 21.0599 17.33 20.4599C17.87 20.1199 17.94 19.3599 17.49 18.9099C17.17 18.5899 16.66 18.5099 16.28 18.7599C15.52 19.2499 14.67 19.6099 13.75 19.8099C13.3 19.8999 13 20.3099 13 20.7699ZM9.78998 21.7499C8.66998 21.4899 7.61998 21.0499 6.66998 20.4499C6.12998 20.1099 6.05998 19.3599 6.51998 18.9199C6.83998 18.5899 7.33998 18.5199 7.72998 18.7599C8.48998 19.2399 9.34998 19.6099 10.26 19.8099C10.7 19.8999 11 20.3199 11 20.7699C11 21.3999 10.41 21.8899 9.78998 21.7499Z" fill="black"/>
</svg>

<svg xmlns="http://www.w3.org/2000/svg" viewBox="0 0 24 24"><g xmlns="http://www.w3.org/2000/svg" id="filter-tilt-shift" fill-rule="nonzero">
            <path d="M11 3.23c0-.64-.59-1.13-1.21-.99-1.12.26-2.18.7-3.12 1.3-.53.34-.61 1.1-.16 1.55.32.32.83.4 1.21.16.77-.49 1.62-.85 2.54-1.05.44-.1.74-.51.74-.97zm6.33.32c-.94-.6-2-1.04-3.12-1.3a.998.998 0 00-1.21.98c0 .45.3.87.74.96.91.2 1.77.57 2.53 1.05.39.24.89.17 1.21-.16a.972.972 0 00-.15-1.53zM20.77 11c.64 0 1.13-.59.99-1.21-.26-1.12-.7-2.18-1.3-3.12-.34-.53-1.1-.61-1.55-.16-.32.32-.4.83-.16 1.21.49.77.85 1.62 1.05 2.53.1.45.51.75.97.75zM5.1 6.51c-.46-.45-1.21-.38-1.55.16-.6.94-1.04 2-1.3 3.12-.14.62.34 1.21.98 1.21.45 0 .87-.3.96-.74.2-.91.57-1.77 1.05-2.53.26-.39.18-.9-.14-1.22zM3.23 13c-.64 0-1.13.59-.99 1.21.26 1.12.7 2.17 1.3 3.12.34.54 1.1.61 1.55.16.32-.32.4-.83.15-1.21-.49-.76-.85-1.61-1.05-2.53-.09-.45-.5-.75-.96-.75zM15 12c0-1.66-1.34-3-3-3s-3 1.34-3 3 1.34 3 3 3 3-1.34 3-3zm3.9 5.49c.45.45 1.21.38 1.55-.15.6-.94 1.04-2 1.3-3.11.14-.62-.35-1.21-.98-1.21-.45 0-.87.3-.96.74-.2.91-.57 1.76-1.05 2.53-.26.37-.18.88.14 1.2zM13 20.77c0 .64.59 1.13 1.21.99 1.12-.26 2.17-.7 3.12-1.3.54-.34.61-1.1.16-1.55-.32-.32-.83-.4-1.21-.15-.76.49-1.61.85-2.53 1.05-.45.09-.75.5-.75.96zm-6.33-.32c.95.6 2 1.04 3.12 1.3.62.14 1.21-.35 1.21-.98 0-.45-.3-.87-.74-.96a7.97 7.97 0 01-2.53-1.05.972.972 0 00-1.21.16.972.972 0 00.15 1.53z"/>
        </g></svg>
